<?xml version="1.0" encoding="UTF-8"?>
<map version="1.10" tiledversion="1.12.2" orientation="orthogonal" renderorder="right-down" width="20" height="20" tilewidth="16" tileheight="16" infinite="0" nextlayerid="5" nextobjectid="7">
 <tileset firstgid="1" source="tileset_DungeonTileSet.tsx"/>
 <layer id="1" name="Floor" width="20" height="20">
  <data encoding="csv">
50,50,50,50,50,50,50,50,50,50,50,50,50,50,50,50,50,50,50,50,
50,50,50,50,50,50,50,50,50,50,50,50,50,50,50,50,50,50,50,50,
50,50,50,50,50,50,50,50,50,50,50,50,50,50,50,50,50,50,50,50,
50,50,50,50,50,50,50,50,50,50,50,50,50,50,50,50,50,50,50,50,
50,50,50,50,50,50,50,50,50,50,50,50,50,50,50,50,50,50,50,50,
50,50,50,50,50,50,50,50,50,50,50,50,50,50,50,50,50,50,50,50,
50,50,50,50,50,50,50,50,50,50,50,50,50,50,50,50,50,50,50,50,
50,50,50,50,50,50,50,50,50,50,50,50,50,50,50,50,50,50,50,50,
50,50,50,50,50,50,50,50,50,50,50,50,50,50,50,50,50,50,50,50,
50,50,50,50,50,50,50,50,50,50,50,50,50,50,50,50,50,50,50,50,
50,50,50,50,50,50,50,50,50,50,50,50,50,50,50,50,50,50,50,50,
50,50,50,50,50,50,50,50,50,50,50,50,50,50,50,50,50,50,50,50,
50,50,50,50,50,50,50,50,50,50,50,50,50,50,50,50,50,50,50,50,
50,50,50,50,50,50,50,50,50,50,50,50,50,50,50,50,50,50,50,50,
50,50,50,50,50,50,50,50,50,50,50,50,50,50,50,50,50,50,50,50,
50,50,50,50,50,50,50,50,50,50,50,50,50,50,50,50,50,50,50,50,
50,50,50,50,50,50,50,50,50,50,50,50,50,50,50,50,50,50,50,50,
50,50,50,50,50,50,50,50,50,50,50,50,50,50,50,50,50,50,50,50,
50,50,50,50,50,50,50,50,50,50,50,50,50,50,50,50,50,50,50,50,
50,50,50,50,50,50,50,50,50,50,50,50,50,50,50,50,50,50,50,50
</data>
 </layer>
 <layer id="2" name="Walls" width="20" height="20">
  <data encoding="csv">
44,45,45,45,45,45,45,45,45,45,45,45,45,45,45,45,45,45,45,2684354604,
1610612781,0,0,0,52,52,0,0,52,0,0,52,0,0,0,0,0,0,48,2684354605,
1610612781,52,2684354623,0,0,2684354623,0,0,52,0,56,52,52,52,52,56,0,0,0,2684354605,
1610612781,0,52,52,0,52,52,0,0,0,0,0,0,0,52,0,0,0,0,2684354605,
1610612781,0,0,0,0,0,52,0,0,1610612792,56,52,52,0,52,0,0,48,48,2684354605,
1610612781,52,2684354623,52,52,0,2684354623,0,52,52,0,0,52,0,0,0,48,0,2684354616,2684354605,
1610612781,0,52,0,0,0,0,0,0,2684354616,0,0,0,0,0,0,0,0,0,2684354605,
1610612781,0,52,0,2684354623,52,52,2684354609,0,1610612792,3221225528,52,0,48,0,48,3221225535,0,1610612792,2684354605,
1610612781,0,0,0,0,0,0,48,0,0,56,0,0,0,0,0,0,0,0,2684354605,
1610612781,0,0,0,52,0,0,0,0,0,52,0,48,48,52,0,56,3221225521,3221225535,2684354605,
1610612781,0,52,52,52,0,48,52,0,0,0,0,0,48,0,0,0,0,0,2684354605,
1610612781,0,0,0,0,0,52,0,0,48,48,0,0,48,0,0,48,48,56,2684354605,
1610612781,48,0,0,48,0,0,0,2684354623,0,0,0,0,0,0,0,48,0,0,2684354605,
1610612781,2684354616,2684354616,0,0,0,52,52,52,0,0,52,50,0,52,48,0,0,2684354616,2684354605,
1610612781,0,0,0,49,0,0,0,0,0,0,52,0,0,52,0,0,2684354623,3221225528,2684354605,
1610612781,0,0,0,0,52,0,0,52,52,2684354623,52,52,0,0,0,0,0,0,2684354605,
1610612781,0,0,2684354616,0,0,0,0,52,0,0,0,52,0,0,52,0,48,48,2684354605,
1610612781,0,2684354616,2684354616,49,0,0,0,0,0,0,0,52,52,52,52,0,48,0,2684354605,
1610612781,49,2684354616,0,0,0,0,48,48,48,0,0,0,0,0,52,0,0,0,2684354605,
1610612780,3221225517,3221225517,3221225517,3221225517,3221225517,3221225517,3221225517,3221225517,3221225517,3221225517,3221225517,3221225517,3221225517,3221225517,3221225517,3221225517,3221225517,3221225517,3221225516
</data>
 </layer>
 <layer id="4" name="Objectlayer's tile" width="20" height="20">
  <data encoding="csv">
0,0,0,0,0,0,0,0,0,0,0,0,0,0,0,0,0,0,0,0,
0,0,0,0,0,0,0,0,0,0,0,0,0,0,0,0,0,0,0,0,
0,0,0,0,0,0,0,0,0,0,0,0,0,0,0,0,0,0,0,50,
0,0,0,0,0,0,0,0,0,0,0,0,0,0,0,0,0,0,0,50,
0,0,0,0,0,0,0,0,0,0,0,0,0,0,0,0,0,0,0,0,
0,0,0,0,0,0,0,0,0,0,0,0,0,0,0,0,0,0,0,0,
0,0,0,0,0,0,0,0,0,0,0,0,0,0,0,0,0,0,0,0,
0,0,0,0,0,0,0,0,0,0,0,0,0,0,0,0,0,0,0,0,
0,0,0,0,0,0,0,0,0,0,0,0,0,0,0,0,0,0,0,0,
0,0,0,0,0,0,0,0,0,0,0,0,0,0,0,0,0,0,0,0,
0,0,0,0,0,0,0,0,0,0,0,0,0,0,0,0,0,0,0,0,
0,0,0,0,0,0,0,0,0,0,0,0,0,0,0,0,0,0,0,0,
0,0,0,0,0,0,0,0,0,0,0,0,0,0,0,0,0,0,0,0,
0,0,0,0,0,0,0,0,0,0,0,0,0,0,0,0,0,0,0,0,
50,0,0,0,0,0,0,0,0,0,0,0,0,0,0,0,0,0,0,0,
50,0,0,0,0,0,0,0,0,0,0,0,0,0,0,0,0,0,0,0,
0,0,0,0,0,0,0,0,0,0,0,0,0,0,0,0,0,0,0,0,
0,0,0,0,0,0,0,0,0,0,0,0,0,0,0,0,0,0,0,0,
0,0,0,0,0,0,0,0,0,0,0,0,0,0,0,0,0,0,0,0,
0,0,0,0,0,0,0,0,0,0,0,0,0,0,0,0,0,0,0,0
</data>
 </layer>
 <objectgroup id="3" name="Object Layer 1">
  <object id="1" name="spawn" x="302.713" y="31.1616" width="16.8174" height="31.1616"/>
  <object id="2" name="goal" x="0.989257" y="223.078" width="15.8281" height="32.1509"/>
  <object id="4" name="death" x="135.034" y="134.539" width="18.7959" height="18.3013"/>
  <object id="6" name="death" x="41.0542" y="184.002" width="20.2798" height="19.7851"/>
 </objectgroup>
</map>
