<?xml version="1.0" encoding="UTF-8"?>
<map version="1.10" tiledversion="1.12.2" orientation="orthogonal" renderorder="right-down" width="15" height="15" tilewidth="16" tileheight="16" infinite="0" nextlayerid="7" nextobjectid="9">
 <editorsettings>
  <export target="Desktop/CMPMD3-v3/assets/level1.tmj" format="json"/>
 </editorsettings>
 <tileset firstgid="1" source="tileset_DungeonTileSet.tsx"/>
 <layer id="2" name="Floor" width="15" height="15">
  <data encoding="csv">
50,50,50,50,50,50,50,50,50,50,50,50,50,50,50,
50,50,50,50,50,50,50,50,50,50,50,50,50,50,50,
50,50,50,50,50,50,50,50,50,50,50,50,50,50,50,
50,50,50,50,50,50,50,50,50,50,50,50,50,50,50,
50,50,50,50,50,50,50,50,50,50,50,50,50,50,50,
50,50,50,50,50,50,50,50,50,50,50,50,50,50,50,
50,50,50,50,50,50,50,50,50,50,50,50,50,50,50,
50,50,50,50,50,50,50,50,50,50,50,50,50,50,50,
50,50,50,50,50,50,50,50,50,50,50,50,50,50,50,
50,50,50,50,50,50,50,50,50,50,50,50,50,50,50,
50,50,50,50,50,50,50,50,50,50,50,50,50,50,50,
50,50,50,50,50,50,50,50,50,50,50,50,50,50,50,
50,50,50,50,50,50,50,50,50,50,50,50,50,50,50,
50,50,50,50,50,50,50,50,50,50,50,50,50,50,50,
50,50,50,50,50,50,50,50,50,50,50,50,50,50,50
</data>
 </layer>
 <layer id="3" name="Walls" width="15" height="15">
  <data encoding="csv">
44,45,45,45,45,45,45,45,45,45,45,45,45,45,2684354604,
1610612781,0,0,52,0,49,0,0,0,52,0,0,56,1610612792,2684354605,
1610612781,0,52,52,0,52,52,52,0,56,0,0,0,0,2684354605,
1610612781,0,52,0,0,0,0,52,0,0,0,63,0,0,2684354605,
1610612781,0,52,0,0,52,52,52,0,52,0,52,0,56,2684354605,
1610612781,0,63,52,0,0,0,0,0,52,52,52,0,0,2684354605,
1610612781,0,0,0,0,52,0,52,0,0,0,0,0,0,2684354605,
1610612781,52,52,52,2684354616,56,0,3221225535,52,0,52,0,52,52,2684354605,
1610612781,0,63,0,0,0,0,52,0,0,52,0,0,0,2684354605,
1610612781,0,3221225528,52,0,2684354623,52,3221225528,52,0,0,0,52,49,2684354605,
1610612781,0,0,52,0,52,0,1610612792,52,0,52,52,52,0,2684354605,
1610612781,0,0,0,0,52,0,0,52,0,0,0,52,0,2684354605,
1610612781,52,52,52,0,0,0,0,52,52,52,0,0,0,2684354605,
1610612781,0,0,0,0,3221225535,0,0,0,0,0,0,0,49,2684354605,
1610612780,3221225517,3221225517,3221225517,3221225517,3221225517,3221225517,3221225517,3221225517,3221225517,3221225517,3221225517,3221225517,3221225517,3221225516
</data>
 </layer>
 <layer id="6" name="Objectlayer's tile" width="15" height="15">
  <data encoding="csv">
0,0,0,0,0,0,0,0,0,0,0,0,0,0,0,
0,0,0,0,0,0,0,0,0,0,0,0,0,0,0,
0,0,0,0,0,0,0,0,0,0,0,0,0,0,50,
0,0,0,0,0,0,0,0,0,0,0,0,0,0,50,
0,0,0,0,0,0,0,0,0,0,0,0,0,0,0,
0,0,0,0,0,0,0,0,0,0,0,0,0,0,0,
0,0,0,0,0,0,0,0,0,0,0,0,0,0,0,
0,0,0,0,0,0,0,0,0,0,0,0,0,0,0,
0,0,0,0,0,0,0,0,0,0,0,0,0,0,0,
0,0,0,0,0,0,0,0,0,0,0,0,0,0,0,
50,0,0,0,0,0,0,0,0,0,0,0,0,0,0,
50,0,0,0,0,0,0,0,0,0,0,0,0,0,0,
0,0,0,0,0,0,0,0,0,0,0,0,0,0,0,
0,0,0,0,0,0,0,0,0,0,0,0,0,0,0,
0,0,0,0,0,0,0,0,0,0,0,0,0,0,0
</data>
 </layer>
 <objectgroup id="5" name="Object Layer 1">
  <object id="1" name="spawn" x="225.064" y="30.7316" width="14.01" height="32.5393"/>
  <object id="8" name="goal" x="1.3558" y="159.985" width="13.558" height="31.1835"/>
 </objectgroup>
</map>
