<?xml version="1.0" encoding="UTF-8"?>
<map version="1.10" tiledversion="1.12.2" orientation="orthogonal" renderorder="right-down" width="18" height="18" tilewidth="16" tileheight="16" infinite="0" nextlayerid="5" nextobjectid="9">
 <tileset firstgid="1" source="../../../tileset_DungeonTileSet.tsx"/>
 <layer id="1" name="Floor" width="18" height="18">
  <data encoding="csv">
50,50,50,50,50,50,50,50,50,50,50,50,50,50,50,50,50,50,
50,50,50,50,50,50,50,50,50,50,50,50,50,50,50,50,50,50,
50,50,50,50,50,50,50,50,50,50,50,50,50,50,50,50,50,50,
50,50,50,50,50,50,50,50,50,50,50,50,50,50,50,50,50,50,
50,50,50,50,50,50,50,50,50,50,50,50,50,50,50,50,50,50,
50,50,50,50,50,50,50,50,50,50,50,50,50,50,50,50,50,50,
50,50,50,50,50,50,50,50,50,50,50,50,50,50,50,50,50,50,
50,50,50,50,50,50,50,50,50,50,50,50,50,50,50,50,50,50,
50,50,50,50,50,50,50,50,50,50,50,50,50,50,50,50,50,50,
50,50,50,50,50,50,50,50,50,50,50,50,50,50,50,50,50,50,
50,50,50,50,50,50,50,50,50,50,50,50,50,50,50,50,50,50,
50,50,50,50,50,50,50,50,50,50,50,50,50,50,50,50,50,50,
50,50,50,50,50,50,50,50,50,50,50,50,50,50,50,50,50,50,
50,50,50,50,50,50,50,50,50,50,50,50,50,50,50,50,50,50,
50,50,50,50,50,50,50,50,50,50,50,50,50,50,50,50,50,50,
50,50,50,50,50,50,50,50,50,50,50,50,50,50,50,50,50,50,
50,50,50,50,50,50,50,50,50,50,50,50,50,50,50,50,50,50,
50,50,50,50,50,50,50,50,50,50,50,50,50,50,50,50,50,50
</data>
 </layer>
 <layer id="4" name="Walls" width="18" height="18">
  <data encoding="csv">
44,59,59,59,59,59,59,59,59,59,59,59,59,59,59,59,59,2684354604,
1610612795,0,0,0,0,52,0,0,0,52,0,52,0,0,52,0,3221225535,2684354619,
1610612795,52,52,52,0,1610612785,52,52,0,52,0,0,0,0,0,0,2684354623,2684354619,
1610612795,0,52,0,0,2684354616,0,0,0,56,52,52,0,56,0,52,0,2684354619,
1610612795,0,52,0,52,3221225528,52,0,0,52,0,0,0,52,1610612792,52,0,2684354619,
1610612795,0,0,0,0,0,0,0,52,56,0,0,0,0,0,0,0,2684354619,
1610612795,2684354609,52,0,0,52,3221225535,1610612799,52,0,0,52,56,52,0,0,52,2684354619,
1610612795,0,0,0,0,0,0,0,0,0,0,52,0,0,0,0,3221225535,2684354619,
1610612795,0,0,0,52,52,0,0,52,0,3221225535,1610612799,63,52,0,52,1610612799,2684354619,
1610612795,0,52,0,0,52,3221225521,0,0,0,52,0,52,0,0,0,49,2684354619,
1610612795,0,52,0,0,0,52,52,63,0,63,0,2684354623,0,52,0,0,2684354619,
1610612795,0,1610612785,52,56,52,63,0,52,0,0,0,52,0,52,52,0,2684354619,
1610612795,0,0,0,52,0,0,0,0,0,52,0,52,0,0,0,52,2684354619,
1610612795,0,0,0,0,0,52,52,52,0,0,0,0,0,0,0,0,2684354619,
1610612795,0,52,0,0,0,0,0,52,56,52,52,0,2684354623,1610612799,0,3221225523,2684354619,
1610612795,52,2684354609,52,52,0,52,0,52,0,0,0,0,3221225535,0,0,3221225523,2684354619,
1610612795,0,0,52,0,0,52,0,0,0,0,2684354623,1610612785,0,0,0,1610612787,2684354619,
1610612780,3221225531,3221225531,3221225531,3221225531,3221225531,3221225531,3221225531,3221225531,3221225531,3221225531,3221225531,3221225531,3221225531,3221225531,3221225531,3221225531,3221225516
</data>
 </layer>
 <layer id="2" name="Objectlayer's tile" width="18" height="18">
  <data encoding="csv">
0,0,0,0,0,0,0,0,0,0,0,0,0,0,0,0,0,0,
0,0,0,0,0,0,0,0,0,0,0,0,0,0,0,0,0,0,
0,0,0,0,0,0,0,0,0,0,0,0,0,0,0,0,0,0,
0,0,0,0,0,0,0,0,0,0,0,0,0,0,0,0,0,50,
0,0,0,0,0,0,0,0,0,0,0,0,0,0,0,0,0,50,
0,0,0,0,0,0,0,0,0,0,0,0,0,0,0,0,0,0,
0,0,0,0,0,0,0,0,0,0,0,0,0,0,0,0,0,0,
0,0,0,0,0,0,0,0,0,0,0,0,0,0,0,0,0,0,
0,0,0,0,0,0,0,0,0,0,0,0,0,0,0,0,0,0,
0,0,0,0,0,0,0,0,0,0,0,0,0,0,0,0,0,0,
0,0,0,0,0,0,0,0,0,0,0,0,0,0,0,0,0,0,
0,0,0,0,0,0,0,0,0,0,0,0,0,0,0,0,0,0,
0,0,0,0,0,0,0,0,0,0,0,0,0,0,0,0,0,0,
50,0,0,0,0,0,0,0,0,0,0,0,0,0,0,0,0,0,
50,0,0,0,0,0,0,0,0,0,0,0,0,0,0,0,0,0,
0,0,0,0,0,0,0,0,0,0,0,0,0,0,0,0,0,0,
0,0,0,0,0,0,0,0,0,0,0,0,0,0,0,0,0,0,
0,0,0,0,0,0,0,0,0,0,0,0,0,0,0,0,0,0
</data>
 </layer>
 <objectgroup id="3" name="Object Layer 1">
  <object id="1" name="spawn" x="271.551" y="46.7424" width="15.1356" height="31.6068"/>
  <object id="6" name="goal" x="-0.890332" y="207.447" width="18.2518" height="31.6068"/>
  <object id="7" name="death" x="150.466" y="102.833" width="19.5873" height="18.2518"/>
 </objectgroup>
</map>
